icons/desktop/16/svg/video-game-controller-16.svg

<svg width="16" height="16" viewBox="0 0 16 16" fill="none" xmlns="http://www.w3.org/2000/svg">
<path d="M5.75025 4.875C6.0953 4.87515 6.37525 5.15492 6.37525 5.5V5.875H6.75025C7.0953 5.87515 7.37525 6.15492 7.37525 6.5C7.37525 6.84508 7.0953 7.12485 6.75025 7.125H6.37525V7.5C6.37525 7.84508 6.0953 8.12485 5.75025 8.125C5.40508 8.125 5.12525 7.84518 5.12525 7.5V7.125H4.75025C4.40508 7.125 4.12525 6.84518 4.12525 6.5C4.12525 6.15482 4.40508 5.875 4.75025 5.875H5.12525V5.5C5.12525 5.15482 5.40508 4.875 5.75025 4.875Z" fill="black"/>
<path d="M10.5003 5.5C11.0524 5.50015 11.5003 5.94781 11.5003 6.5C11.5003 7.05219 11.0524 7.49985 10.5003 7.5C9.94797 7.5 9.50025 7.05228 9.50025 6.5C9.50025 5.94772 9.94797 5.5 10.5003 5.5Z" fill="black"/>
<path fill-rule="evenodd" clip-rule="evenodd" d="M7.99928 1.99902C9.48416 1.99904 10.831 2.11859 12.009 2.28906C13.028 2.43745 13.8553 3.14631 14.1897 4.09277L14.2503 4.28516L15.8899 10.2656L15.9436 10.4717C16.1675 11.5048 15.7149 12.6076 14.7503 13.165L14.7493 13.166C13.5538 13.8555 12.0243 13.4457 11.3342 12.25L11.3313 12.2441L10.6956 11.1211L10.5588 10.8809C9.76271 10.9541 8.90845 11 8.00221 11C7.0967 11 6.2414 10.9541 5.44459 10.8809L5.25514 11.2148L5.25416 11.2158L4.72682 12.1416C4.15949 13.1369 2.93744 13.7492 1.76686 13.3906L1.53443 13.3057C0.307402 12.7881 -0.252397 11.4568 0.108652 10.2725H0.106699L1.25807 6.07812L1.74439 4.28809C2.02849 3.24351 2.89783 2.44644 3.98561 2.28809C5.16509 2.11753 6.5135 1.99903 7.99928 1.99902ZM7.99928 3.49902C6.94455 3.49902 5.96321 3.56156 5.06764 3.66113L4.20143 3.77246C3.72174 3.8424 3.32358 4.1967 3.19166 4.68164L2.70436 6.47363V6.47559L1.55299 10.6699C1.55039 10.6794 1.54814 10.6889 1.54518 10.6982C1.39373 11.1749 1.61832 11.7133 2.11744 11.9238L2.19947 11.9541C2.61772 12.0799 3.15033 11.877 3.42311 11.3984L3.95143 10.4727L4.38209 9.71582C4.53238 9.45191 4.82447 9.30877 5.11939 9.34277C6.00086 9.43973 6.96658 9.5 8.00221 9.5C9.04055 9.49999 10.007 9.43903 10.8909 9.3418L11.0022 9.33789C11.2592 9.34788 11.4971 9.48935 11.6262 9.71777L12.636 11.5049C12.913 11.9792 13.5225 12.141 13.9993 11.8662C14.4101 11.6288 14.5904 11.1427 14.4563 10.708C14.454 10.7005 14.4515 10.6931 14.4495 10.6855L12.804 4.68164L12.7415 4.50586C12.5943 4.16893 12.311 3.91623 11.969 3.8125L11.7942 3.77344C10.6785 3.61198 9.40386 3.49904 7.99928 3.49902Z" fill="black"/>
</svg>

<!-- This Source Code Form is subject to the terms of the Mozilla Public
   - License, v. 2.0. If a copy of the MPL was not distributed with this
   - file, You can obtain one at http://mozilla.org/MPL/2.0/. -->
<svg xmlns="http://www.w3.org/2000/svg" width="16" height="16" fill="context-fill" fill-opacity="context-fill-opacity" viewBox="0 0 16 16">
    <path d="M5.75 4.875c.345 0 .625.28.625.625v.375h.375a.625.625 0 0 1 0 1.25h-.375V7.5a.625.625 0 0 1-1.25 0v-.375H4.75a.625.625 0 0 1 0-1.25h.375V5.5c0-.345.28-.625.625-.625M10.5 5.5a1 1 0 1 1 0 2 1 1 0 0 1 0-2" />
    <path fill-rule="evenodd" d="M8 1.999c1.484 0 2.831.12 4.009.29a2.74 2.74 0 0 1 2.18 1.804l.061.192 1.64 5.98.054.207a2.5 2.5 0 0 1-1.194 2.693v.001a2.5 2.5 0 0 1-3.416-.916l-.003-.006-.635-1.123-.137-.24c-.796.073-1.65.119-2.557.119-.905 0-1.76-.046-2.557-.12l-.19.335-.528.927c-.568.995-1.79 1.607-2.96 1.249l-.233-.085A2.5 2.5 0 0 1 .11 10.273H.107l1.151-4.195.486-1.79a2.74 2.74 0 0 1 2.242-2C5.166 2.118 6.513 2 7.999 2m0 1.5c-1.055 0-2.037.063-2.932.162l-.867.111c-.48.07-.877.425-1.01.91l-.487 1.792v.002L1.553 10.67l-.008.028a1 1 0 0 0 .572 1.226l.082.03c.419.126.951-.077 1.224-.556l.528-.925.431-.757a.75.75 0 0 1 .737-.373 26.4 26.4 0 0 0 5.772-.001l.111-.004a.75.75 0 0 1 .624.38l1.01 1.787a1 1 0 0 0 1.82-.797q-.004-.011-.006-.023l-1.646-6.003-.062-.176a1.24 1.24 0 0 0-.773-.694l-.175-.039A26.5 26.5 0 0 0 8 3.5" clip-rule="evenodd" />
</svg>
